X:228
T:Dieus soit en cheste maison
C:Adam de la Halle
R:Rondeau
O:XIIIe
M:3/4
L:1/8
Q:1/4=120
K:C 
%%continueall 1
%%maxshrink 0.7
V:1
%%MIDI program 73
e'2f'4 | e'd'c' ba2 | b2c'2d'2 | e'2g'4 | 
e'2d'4 | e'2d' c'b2 | c'2d'2e'2 | f'3/2z4z/2 | 
c'2d'2e'2 | f'2f' e'f'2 | g'3/2z4z/2 | c'2^a =ag2 | 
a2^a =ag2 | f2g4 | f3/2z4z/2 | e'2e'2d'2 | 
c'2c' bc'2 | d'3/2z4z/2 | e'2d'2e'2 | f'2e'2d'2 | 
c'2d'2e'2 | f'3/2z4z/2 | c'2d'4 | e'f'g'4 | 
f'2f' e'f'2 | g'3/2z4z/2 | a'g'f' e'd'2 | e'd'c'2b2 | 
c'3/2z4z/2 | e'2f'4 | e'd'c' ba2 | b2c'2d'2 | 
e'2g'4 | e'2d'4 | e'2d' c'b2 | c'2d'2e'2 | f'4 |]
V:2
%%MIDI program 46
A2F4 | ABc2d2 | edc2B2 | c2d4 | 
c2B AG2 | A2^A =AG2 | F2^A4 | c3/2z4z/2 | 
e2d2cB | c2c Bc2 | d3/2z4z/2 | e2d2e2 | 
fed2cB | c2d2e2 | f3/2z4z/2 | c2d2e2 | 
f2f ef2 | g3/2z4z/2 | e2d2cB | c2^A =AG2 | 
F2G4 | F3/2z4z/2 | F2^A4 | =A2G4 | 
c2c Bc2 | d3/2z4z/2 | e2f4 | ed/2>c/2d2e2 | 
f3/2z4z/2 | A2F4 | ABc2d2 | edc2B2 | 
c2d4 | c2B AG2 | A2^A =AG2 | F2^A4 | c4 |]
V:3 clef=treble
%%MIDI program 41
c2c2B2 | =AGF4 | E2F4 | A2G4 | 
A2B4 | c2d4 | c^A/2>=A/2G4 | F3/2z4z/2 | 
A2^A =AG2 | F2A4 | G3/2z4z/2 | A2^A4 | 
c2d4 | c2B4 | c3/2z4z/2 | =A2A2G2 | 
F2A4 | G3/2z4z/2 | A2B4 | c2d4 | 
cB/2>A/2B4 | c3/2z4z/2 | f2f4 | edc2^A=A | 
G2A2GF | G3/2z4z/2 | A2^A4 | =A2G4 | 
F3/2z4z/2 | c2c2B2 | AGF4 | E2F4 | 
A2G4 | A2B4 | c2d4 | c^A/2>=A/2G4 | F4 |]




%%header "$P0	 $IR 	$P1"
%%footer $D - Éditions Galouvielle - 2009 - À usage librement privé dans le cadre familial

